!!!COM:	la Rue, Pierre de
!!!CDT:	~1452///-1518/11/20
!!!OPR:	Missa Inviolata
!!!ONM:	5
!!!OTL:	Agnus Dei
!!!AGN:	Mass; Agnus Dei
!!!SCT:	Rue1017e
!!!SCA:	Rue1017e
!!!voices-OPR:	4
!!!voices:	4
**kern	**kern	**kern	**kern
*staff4	*staff3	*staff2	*staff1
*Ivox	*Ivox	*Ivox	*Ivox
*I"Bassus	*I"Tenor	*I"Contra	*I"Discantus
*I'B	*I'T	*I'C	*I'D
*>[A,B]	*>[A,B]	*>[A,B]	*>[A,B]
*>A	*>A	*>A	*>A
*clefF4	*clefGv2	*clefG2	*clefG2
*k[]	*k[]	*k[]	*k[]
*M2/1	*M2/1	*M2/1	*M2/1
*met(C)	*met(C)	*met(C)	*met(C)
=1-	=1-	=1-	=1-
!!section: Agnus Dei I
!!!OMD: Agnus Dei I
0C	0c	0g	0cc
=2	=2	=2	=2
1C	1c	1g	1cc
[1F	1c	[1a	1cc
=3	=3	=3	=3
2F\]	[0d	2a/]	1.ff
2D\	.	2f/	.
1D	.	1f	.
.	.	.	2dd\
=4	=4	=4	=4
1.G	0d]	1.b-	0dd
2F\	.	2a/	.
=5	=5	=5	=5
2E\	[0e	2g/	1.gg
2D\	.	2f/	.
[1C	.	2e/	.
.	.	2d/	2ff\
=6	=6	=6	=6
1C]	0e]	2c/	2ee\
.	.	2.g/	2dd\
2.c\	.	.	1cc
.	.	4f/	.
.	.	4e/	.
4B\	.	4d/	.
=7	=7	=7	=7
2A\	1r	2c/	0r
2G\	.	2B/	.
2F\	[1f	1A	.
2E\	.	.	.
=8	=8	=8	=8
[0D	1f]	0a	1.ff
.	1f	.	.
.	.	.	2ee\
=9	=9	=9	=9
0D]	0f	1a	2dd\
.	.	.	2cc\
.	.	1r	4b\
.	.	.	4a/
.	.	.	[2dd\
=10	=10	=10	=10
2r	1e	1a	2dd\]
2A\	.	.	2cc\
2B\	2d\	2g/	2dd\
[2d\	[2f\	2f/	2a/
=11	=11	=11	=11
4d\]	2f\]	2d/	2b\
4c\	.	.	.
2A\	2e\	2a/	2cc\
2B\	2d\	2g/	2dd\
[2A\	2f\	[2cc\	2a/
=12	=12	=12	=12
2A\]	4e\	2cc\]	2cc\
.	4d\	.	.
4G\	1d	4b\	2dd\
4F\	.	4a/	.
1E	.	1g	1ee
.	2c\	.	.
=13	=13	=13	=13
0D	0d	2.f/	2a/
.	.	.	1b
.	.	4e/	.
.	.	2f/	.
.	.	[2g/	4a/
.	.	.	4g/
=14	=14	=14	=14
1D	1d	2g/]	1a
.	.	2f#i/	.
1r	[1e	[1g	1g
=15	=15	=15	=15
2.G\	2e\]	0g_	0r
.	4d\	.	.
4A\	4c\	.	.
2B\	2d\	.	.
[2c\	2c\	.	.
=16	=16	=16	=16
4c\]	1e	1g]	0r
4B\	.	.	.
4G\	.	.	.
4A\	.	.	.
2B\	2d\	1g	.
2G\	2B\	.	.
=17	=17	=17	=17
2A\	2c\	0r	0r
2B\	2d\	.	.
2.c\	2.e\	.	.
4A\	4c\	.	.
=18	=18	=18	=18
2B\	2d\	0r	0r
2G\	2.e\	.	.
2A\	.	.	.
.	4c\	.	.
2B\	2d\	.	.
=19	=19	=19	=19
2.c\	0e	0r	2.g/
4B\	.	.	4a/
2G\	.	.	2b\
2A\	.	.	[2cc\
=20	=20	=20	=20
1F	0r	1a	2cc\]
.	.	.	2dd\
1E	.	2g/	2.ee\
.	.	2cc\	.
.	.	.	4cc\
=21	=21	=21	=21
0r	0r	2b\	2dd\
.	.	2g/	2b\
.	.	2a/	2cc\
.	.	2b\	2dd\
=22	=22	=22	=22
2.C/	1c	2.cc\	2ee\
.	.	.	1gg
4D\	.	4b\	.
2E\	1c	2g/	.
[2F\	.	[2a/	[2ff\
=23	=23	=23	=23
2F\]	1e	2a/]	2ff\]
2G\	.	2g/	1ee
2A\	1f	2f/	.
2B\	.	4e/	2dd\
.	.	4d/	.
=24	=24	=24	=24
2.c\	0e	1c	2.ee\
4B\	.	.	4dd\
2G\	.	2r	2b\
2A\	.	[2c/	2cc\
=25	=25	=25	=25
2E\	1e	4c/]	2b\
.	.	4d/	.
2G\	.	2e/	2g/
1F	1d	1f	2a/
.	.	.	4g/
.	.	.	4f/
=26	=26	=26	=26
2r	1c	2g/	1e
1c	.	2e/	.
.	1d	2f/	1r
2B\	.	2d/	.
=27	=27	=27	=27
4A\	1c	2f/	0r
4G\	.	.	.
4F\	.	2e/	.
4E\	.	.	.
1F	1d	1a	.
=28	=28	=28	=28
1E	2e\	[0g	2r
.	2.g\	.	2.ee\
1C	.	.	.
.	4f\	.	4dd\
.	4e\	.	4cc\
.	4d\	.	4a/
=29	=29	=29	=29
2r	2e\	0g]	2cc\
2G\	4d\	.	1b
.	4c\	.	.
2G\	2d\	.	.
[2G\	2e\	.	2b\
=30	=30	=30	=30
4G\]	4d\	2r	2b\
4A\	4c\	.	.
2B\	2d\	1g	2dd\
2c\	1c	.	2ee\
2A\	.	2a/	2cc\
=31	=31	=31	=31
0G	0r	1.b	2.gg\
.	.	.	4ff\
.	.	.	4ee\
.	.	.	4dd\
.	.	4a/	2ee\
.	.	4g/	.
=32	=32	=32	=32
1F	1r	1a	4ff\
.	.	.	4ee\
.	.	.	4dd\
.	.	.	4cc\
1G	2r	2.g/	1b
.	[2d\	.	.
.	.	4a/	.
=33	=33	=33	=33
1r	2d\]	2b\	1r
.	2c\	1a	.
2r	2d\	.	2r
[2G\	2B\	2g/	2b\
=34	=34	=34	=34
4G\]	1A	2.a/	2cc\
4F\	.	.	.
2F\	.	.	2a/
.	.	4g/	.
2G\	1r	4e/	2b\
.	.	4d/	.
2E\	.	[2g/	2g/
=35	=35	=35	=35
1D	2r	2g/]	1a
.	1d	2f/	.
1r	.	2g/	1g
.	2c\	2e/	.
=36	=36	=36	=36
2r	2d\	2d/	2r
1G	2B\	2b\	2g/
.	1A	1cc	2a/
2F\	.	.	2a/
=37	=37	=37	=37
2G\	1G	2b\	4b\
.	.	.	4cc\
2E\	.	1g	4dd\
.	.	.	4ee\
1D	1d	.	1ff
.	.	2f/	.
=38	=38	=38	=38
1C	1e	0g	2ee\
.	.	.	2cc\
1G	2d\	.	2.dd\
.	2B\	.	.
.	.	.	4cc\
=39	=39	=39	=39
1A	1c	1r	4a/
.	.	.	4b\
.	.	.	4cc\
.	.	.	8b\L
.	.	.	8cc\J
2G\	1B	2r	2dd\
2E\	.	2g/	2g/
=40	=40	=40	=40
1F	1r	2f/	1a
.	.	2d/	.
1E	2r	2e/	1g
.	[2e\	[2g/	.
=41	=41	=41	=41
1r	2e\]	2g/]	0r
.	2d\	2f/	.
2r	2e\	2g/	.
[2A\	2c\	2e/	.
=42	=42	=42	=42
2A\]	1B	1d	2r
2G\	.	.	2b\
2A\	1A	[1c	2.cc\
2F\	.	.	.
.	.	.	4dd\
=43	=43	=43	=43
1E	2r	1c]	1ee
.	2e\	.	.
[1D	2.f\	1d	2.a/
.	4e\	.	4f/
=44	=44	=44	=44
1D]	2d\	0r	2b-i\
.	2c\	.	1a
1r	2B\	.	.
.	4A/	.	[2g/
.	4G/	.	.
=45	=45	=45	=45
2r	1A	1r	2g/]
2A\	.	.	2f/
2.B\	2.G/	2r	2g/
.	.	[2d/	[2dd\
4A\	4A/	.	.
=46	=46	=46	=46
2G\	2B\	4d/]	4dd\]
.	.	4e/	4cc\
2F\	2.c\	2f/	2a/
2E\	.	2g/	2g/
.	4d\	.	.
4D\	2e\	2a/	[2cc\
4C/	.	.	.
=47	=47	=47	=47
1G	1d	2g/	2cc\]
.	.	2e/	2b\
[1Cl	[1cl	4e/	[1ccl
.	.	4d/	.
.	.	4c/	.
.	.	4B/	.
=48	=48	=48	=48
0C]	0c]	1A	0cc]
.	.	1Gl	.
!!LO:LB:i:g=z
=49||	=49||	=49||	=49||
*>B	*>B	*>B	*>B
*clefF4	*clefGv2	*clefG2	*clefG2
*k[]	*k[]	*k[]	*k[]
*M2/1	*M2/1	*M2/1	*M2/1
*met(C)	*met(C)	*met(C)	*met(C)
!!section: Agnus Dei II
!!!OMD: Agnus Dei II
0C	[0e	0g	0cc
=50	=50	=50	=50
1C	1e]	1g	1cc
[1G	1e	[1g	[1b
=51	=51	=51	=51
2G\]	0d	1g]	2b\]
4F\	.	.	4a/
4E\	.	.	4g/
1D	.	2.f/	2b\
.	.	.	[2a/
.	.	4g/	.
=52	=52	=52	=52
2F\	0c	2a/	2a/]
2G\	.	2b\	1g
1A	.	1cc	.
.	.	.	2f#i/
=53	=53	=53	=53
0G	1r	0b	0g
.	[1e	.	.
=54	=54	=54	=54
1r	1e]	1r	0r
1C	1e	1cc	.
=55	=55	=55	=55
1G	0d	2.b\	0r
.	.	4g/	.
1D	.	2b\	.
.	.	[2a/	.
=56	=56	=56	=56
2F\	0c	2a/]	1r
2G\	.	1g	.
1A	.	.	1cc
.	.	2f#i/	.
=57	=57	=57	=57
[0G	1r	1.g	1.b
.	1e	.	.
.	.	4f/	4a/
.	.	4e/	4g/
=58	=58	=58	=58
0G]	1d	2g/	2b\
.	.	2a/	2cc\
.	1d	1b	1dd
=59	=59	=59	=59
0C	[0c	2.cc\	1ee
.	.	4b\	.
.	.	2a/	2.cc\
.	.	[2g/	.
.	.	.	4dd\
=60	=60	=60	=60
1r	0c_	2g/]	1ee
.	.	1a	.
1F	.	.	1ff
.	.	4g/	.
.	.	4f/	.
=61	=61	=61	=61
2.C/	0c]	1.g	2ee\
.	.	.	1ee
4D\	.	.	.
2E\	.	.	.
2F\	.	4f/	4dd\
.	.	4e/	4cc\
=62	=62	=62	=62
1.G	1r	1d	0b
.	[1d	1g	.
4F\	.	.	.
4E\	.	.	.
=63	=63	=63	=63
2D\	1d]	2f/	2r
2G\	.	2.d/	2g/
2F\	1d	.	2a/
.	.	4c/	.
[2G\	.	4B/	[2b\
.	.	4A/	.
=64	=64	=64	=64
2G\]	1e	2G/	2b\]
4F\	.	1A	1cc
4E\	.	.	.
1D	1f	.	.
.	.	2B/	2dd\
=65	=65	=65	=65
1.C	1e	1c	1ee
.	2A/	1r	1r
2D\	[2B\	.	.
=66	=66	=66	=66
1E	2B\]	1r	0r
.	1c	.	.
1F	.	1a	.
.	2d\	.	.
=67	=67	=67	=67
1.E	0e	2g/	2r
.	.	1g	2e/
.	.	.	2g/
2F\	.	4f/	2a/
.	.	4e/	.
=68	=68	=68	=68
2G\	0r	2f/	2b\
2A\	.	1e	2cc\
1F	.	.	4dd\
.	.	.	4cc\
.	.	2d/	4b\
.	.	.	4a/
=69	=69	=69	=69
2E\	2r	1e	1g
2G\	2B\	.	.
1F	2c\	1r	1r
.	2d\	.	.
=70	=70	=70	=70
1E	2e\	1r	2r
.	2g\	.	2b\
1r	1f	1a	2cc\
.	.	.	2dd\
=71	=71	=71	=71
2.E\	[0e	2g/	2.ee\
.	.	2.g/	.
4F\	.	.	4dd\
2G\	.	.	2b\
.	.	4f/	.
[2A\	.	4e/	[2cc\
.	.	4d/	.
=72	=72	=72	=72
2A\]	0e]	2.c/	4cc\]
.	.	.	4b\
4G\	.	.	1a
4F\	.	4A/	.
1E	.	2B/	.
.	.	2G/	2g/
=73	=73	=73	=73
1D	[0f	2d/	0a
.	.	4c/	.
.	.	4B/	.
2r	.	[1A	.
[2F\	.	.	.
=74	=74	=74	=74
2F\]	0f]	1A]	0r
2D\	.	.	.
2.F\	.	[1a	.
4G\	.	.	.
=75	=75	=75	=75
2A\	1f	1a]	2r
2D\	.	.	1ff
1D	[1f	1a	.
.	.	.	2dd\
=76	=76	=76	=76
2r	1f]	0a	2.ff\
2D\	.	.	.
.	.	.	4ee\
2A\	1f	.	2cc\
2B\	.	.	2dd\
=77	=77	=77	=77
2.c\	0e	1g	2.ee\
4B\	.	.	4dd\
2A\	.	1r	2cc\
[2G\	.	.	[2b\
=78	=78	=78	=78
2G\]	1d	1.g	4b\]
.	.	.	4cc\
2F\	.	.	2dd\
1E	2.c\	.	1ee
.	.	4f/	.
.	8B\L	4g/	.
.	8c\J	.	.
=79	=79	=79	=79
1D	4d\	1f	2.ff\
.	4c\	.	.
.	4B\	.	.
.	4A/	.	4ee\
1G	1B	1g	1dd
=80	=80	=80	=80
1C	0c	2.e/	2r
.	.	.	2ee\
.	.	4f/	.
2r	.	2g/	2cc\
[2c\	.	2a/	[2ee\
=81	=81	=81	=81
4c\]	0r	2g/	4ee\]
4d\	.	.	4ff\
4e\	.	2cc\	4gg\
4c\	.	.	4ee\
4d\	.	2b\	4ff\
4c\	.	.	4ee\
4B\	.	2a/	4dd\
4A\	.	.	4cc\
=82	=82	=82	=82
2B\	2r	2g/	2dd\
2A\	2.e\	2.a/	2.cc\
1c	.	.	.
.	4f\	4g/	4dd\
.	4g\	4e/	2ee\
.	4e\	4f/	.
=83	=83	=83	=83
2B\	4f\	0g	2dd\
.	4e\	.	.
2c\	4d\	.	1cc
.	4c\	.	.
1G	1d	.	.
.	.	.	2b\
=84	=84	=84	=84
2r	1c	2r	2cc\
2c\	.	2g/	2ee\
2d\	1r	2f/	2ff\
2B\	.	2g/	2dd\
=85	=85	=85	=85
2c\	1r	2e/	2ee\
4B\	.	2f/	4dd\
4A\	.	.	4cc\
1G	2r	1g	2.b\
.	2e\	.	.
.	.	.	4a/
=86	=86	=86	=86
1F	2f\	2.a/	2a/
.	2d\	.	2dd\
.	.	4f/	.
1r	2e\	2g/	2b\
.	4d\	[2a/	2cc\
.	4c\	.	.
=87	=87	=87	=87
1G	1B	2a/]	2.dd\
.	.	2g/	.
.	.	.	4b\
1F	2A/	1a	2cc\
.	2d\	.	2dd\
=88	=88	=88	=88
1E	2B\	2r	1ee
.	2c\	2g/	.
1D	1d	2.f/	2.ff\
.	.	4d/	4ee\
=89	=89	=89	=89
1r	2r	2e/	2cc\
.	2d\	2f/	1dd
1r	1f	[1d	.
.	.	.	4cc\
.	.	.	4b\
=90	=90	=90	=90
1D	1f	1d]	1a
1E	2.e\	1B	1g
.	4d\	.	.
=91	=91	=91	=91
1E	4c\	2.e/	2r
.	4B\	.	.
.	1e	.	2g/
.	.	4d/	.
[1G	.	2B/	2.b\
.	4d\	2e/	.
.	4c\	.	4cc\
=92	=92	=92	=92
1G]	1B	2d/	1dd
.	.	1g	.
1A	1r	.	1cc
.	.	2f#i/	.
=93	=93	=93	=93
1.G	1B	1g	2b\
.	.	.	1b
.	1d	1r	.
4F\	.	.	4a/
4E\	.	.	4g/
=94	=94	=94	=94
1F	1d	0r	1a
1E	1e	.	2r
.	.	.	2g/
=95	=95	=95	=95
1r	2e\	0r	2.b\
.	1d	.	.
.	.	.	4cc\
2r	.	.	2dd\
2G\	4c\	.	[2ee\
.	4B\	.	.
=96	=96	=96	=96
1A	1c	0r	2ee\]
.	.	.	2cc\
1G	1B	.	2dd\
.	.	.	[2ee\
=97	=97	=97	=97
2E\	2r	1r	2ee\]
2F\	2d\	.	4dd\
.	.	.	4cc\
[1G	1e	2r	2.b\
.	.	[2g/	.
.	.	.	4cc\
=98	=98	=98	=98
1G]	1d	2g/]	4dd\
.	.	.	4b\
.	.	4f/	1dd
.	.	4e/	.
2r	2B\	2d/	.
2E\	2c\	2g/	[2cc\
=99	=99	=99	=99
2F\	1d	2f/	2cc\]
2G\	.	2d/	2b\
2A\	1c	2a/	2cc\
2F\	.	[2cc\	2ff\
=100	=100	=100	=100
2c\	1r	4cc\]	2ee\
.	.	4b\	.
2B\	.	4g/	2dd\
.	.	4a/	.
2G\	1r	4b\	2.gg\
.	.	4a/	.
[2B\	.	4g/	.
.	.	4f/	4ff\
=101	=101	=101	=101
2B\]	2r	2g/	2dd\
1A	2f\	4a/	4cc\
.	.	4b\	4dd\
.	2e\	4cc\	4ee\
.	.	8b\L	8dd\L
.	.	8cc\J	8ee\J
2D\	2d\	4dd\	2ff\
.	.	4cc\	.
=102	=102	=102	=102
4E\	2.g\	4b\	2ee\
4F\	.	4a/	.
4G\	.	1g	4dd\
8F\L	4e\	.	4cc\
8G\J	.	.	.
1A	4f\	.	2dd\
.	4e\	.	.
.	4d\	2f/	[2cc\
.	4c\	.	.
=103	=103	=103	=103
1G	1d	1g	2cc\]
.	.	.	2b\
[1Cl	[1cl	2r	[1ccl
.	.	2g/	.
=104	=104	=104	=104
0C_	0c_	2e/	0cc_
.	.	2f/	.
.	.	1g	.
=105	=105	=105	=105
0C]	0c]	0gl	0cc]
==	==	==	==
*-	*-	*-	*-
!!!RDF**kern: l=long note in original notation
!!!RDF**kern: i=editorial accidental
!!!ENC:	Chris Gage 05-14-2013
!!!END:	2013/07/25/
!!!EED:	Jesse Rodin
!!!EEV:	2013/08/05/
!!!ONB:	Translated from MusicXML and edited on 2013/08/05/ by Craig Sapp
!!muse2ps: T^@{OPR}^u^@{ONM}{. }@{OTL}^C^@{COM}^i2I150v85,85,85,150Q16
